X:9587
T:Life on the Ocean Waves
M:6/8
L:1/8
K:G
E|D2 D G2 A|B3 -B2 G/A/|BAB c2 B|A3 -A2 F|!
D2 F A2 B|c3 -c2 d|e2 d cBA|B3 -B2 G|!
D2 D G2 A|B3 -B2 G/A/|BAB c2 B|A3 -A2 F|!
D2 F A2 B|c3 -c2 d|e2 d cBA|G3 -G2:|!
|:B|dBd g2 d|cBc A2 B|cBc e2 d|cBA B2 c|!
dBd g2 d|cBc A2 B|cBc e2 d|cBA G2:|!


